shelter/assets/icons/help/icon-toys.svg

<svg width="60" height="60" viewBox="0 0 60 60" fill="none" xmlns="http://www.w3.org/2000/svg">
<path d="M51.2132 8.78672C45.5469 3.1207 38.0133 0 30 0C21.9867 0 14.4531 3.1207 8.78684 8.78672C3.12047 14.4531 0 21.9866 0 30C0 38.0134 3.12047 45.5469 8.78684 51.2133C14.4531 56.8793 21.9867 60 30 60C38.0133 60 45.5469 56.8793 51.2132 51.2133C56.8795 45.5469 60 38.0134 60 30C60 21.9866 56.8795 14.4531 51.2132 8.78672ZM10.6314 49.3685C5.90438 44.6415 3.11918 38.4906 2.67352 31.8832C3.39 31.9077 4.1223 31.9755 4.86223 32.0856C10.1654 32.8733 15.5023 35.7234 19.8894 40.1106C24.2766 44.4979 27.1266 49.8346 27.9144 55.1379C28.0223 55.8586 28.0894 56.5849 28.1154 57.3132C21.7419 56.8775 15.4928 54.2298 10.6314 49.3685ZM30.7262 57.3682C30.7013 56.4931 30.6239 55.6203 30.4946 54.7545C29.6251 48.9019 26.5139 43.046 21.7338 38.2659C16.9538 33.4859 11.098 30.3746 5.2452 29.5051C4.37502 29.3751 3.49781 29.2977 2.61832 29.2732C2.64105 28.3972 2.7048 27.5283 2.8084 26.6682C3.73793 26.6987 4.68246 26.7843 5.62863 26.9248C12.0308 27.8757 18.4055 31.2484 23.5785 36.4213C28.7512 41.5939 32.1239 47.9687 33.075 54.3709C33.2133 55.3004 33.2987 56.237 33.3307 57.1763C32.4661 57.2814 31.5969 57.3455 30.7262 57.3682ZM49.3685 49.3685C45.5416 53.1952 40.8551 55.6504 35.9248 56.7348C35.881 55.8152 35.7912 54.8983 35.6557 53.9877C34.6229 47.0358 30.9889 40.1423 25.4234 34.5766C19.8575 29.0109 12.964 25.3772 6.0123 24.3444C5.0982 24.2082 4.17782 24.1182 3.25465 24.0746L3.2475 24.0805C4.35598 19.0238 6.88301 14.3798 10.6315 10.6314C14.2923 6.97055 18.7399 4.56516 23.4349 3.41402C23.4672 4.49215 23.5632 5.56742 23.7224 6.63422C24.755 13.5859 28.3889 20.4795 33.9546 26.0453C39.5203 31.611 46.4139 35.2447 53.3659 36.2775C54.4358 36.4373 55.5143 36.5334 56.5956 36.5653L56.6073 36.5459C55.4323 41.3595 52.9617 45.7754 49.3685 49.3685ZM57.1071 33.966C56.0064 33.955 54.8814 33.8653 53.7492 33.6972C47.3468 32.7461 40.972 29.3735 35.7993 24.2006C30.6265 19.0277 27.2538 12.6531 26.3029 6.25102C26.1354 5.12379 26.0455 4.00371 26.034 2.90824C26.8999 2.78261 27.7712 2.69826 28.6451 2.65547C28.6431 3.70254 28.7214 4.7775 28.8832 5.8677C29.7527 11.7204 32.8641 17.5763 37.6441 22.3562C38.1534 22.8654 38.9794 22.8654 39.4888 22.3562C39.9981 21.8469 39.9981 21.021 39.4888 20.5114C35.1016 16.1243 32.2516 10.7876 31.4638 5.48426C31.3205 4.51898 31.2499 3.57035 31.2521 2.65055C37.8434 2.94937 44.3467 5.60918 49.3688 10.6315C54.2461 15.5088 57.0565 21.902 57.3623 28.7483C56.4367 28.7503 55.4855 28.6804 54.5159 28.5363C53.8035 28.4305 53.1397 28.9225 53.034 29.635C52.9281 30.3476 53.42 31.0109 54.1325 31.1167C55.21 31.2768 56.2729 31.3569 57.3083 31.3569C57.3252 31.3569 57.3417 31.356 57.3586 31.356C57.316 32.2295 57.2321 33.1004 57.1071 33.966Z" fill="#F1CDB3"/>
<path d="M46.1517 25.775C45.8059 25.7756 45.4744 25.9131 45.2296 26.1573C44.9854 26.4021 44.848 26.7336 44.8474 27.0793C44.8474 27.4224 44.9857 27.7589 45.2296 28.0015C45.4721 28.2442 45.8087 28.3836 46.1517 28.3836C46.4947 28.3836 46.8313 28.2442 47.0739 28.0015C47.3176 27.7563 47.4549 27.425 47.456 27.0793C47.456 26.7363 47.3164 26.3998 47.0739 26.1573C46.829 25.9131 46.4975 25.7756 46.1517 25.775Z" fill="#F1CDB3"/>
</svg>

<svg width="60" height="60" fill="none" xmlns="http://www.w3.org/2000/svg"><path d="M51.213 8.787C45.547 3.12 38.013 0 30 0 21.987 0 14.453 3.12 8.787 8.787 3.12 14.453 0 21.987 0 30c0 8.013 3.12 15.547 8.787 21.213C14.453 56.88 21.987 60 30 60c8.013 0 15.547-3.12 21.213-8.787C56.88 45.547 60 38.013 60 30c0-8.013-3.12-15.547-8.787-21.213zM10.631 49.368C5.904 44.641 3.12 38.491 2.674 31.883c.716.025 1.448.093 2.188.203 5.303.787 10.64 3.637 15.027 8.025 4.388 4.387 7.238 9.724 8.025 15.027.108.72.175 1.447.201 2.175a27.276 27.276 0 0 1-17.484-7.945zm20.095 8a21.916 21.916 0 0 0-.231-2.614c-.87-5.852-3.981-11.708-8.761-16.488-4.78-4.78-10.636-7.891-16.489-8.76-.87-.13-1.747-.208-2.627-.233a27.81 27.81 0 0 1 .19-2.605c.93.03 1.874.116 2.82.257 6.403.95 12.777 4.323 17.95 9.496s8.546 11.548 9.497 17.95a24.8 24.8 0 0 1 .256 2.805 27.53 27.53 0 0 1-2.605.192zm18.642-8a27.23 27.23 0 0 1-13.443 7.367 27.58 27.58 0 0 0-.27-2.747c-1.032-6.952-4.666-13.846-10.232-19.411-5.565-5.566-12.459-9.2-19.41-10.233a27.522 27.522 0 0 0-2.758-.27l-.007.006c1.108-5.056 3.635-9.7 7.383-13.449a27.225 27.225 0 0 1 12.804-7.217 27.37 27.37 0 0 0 .287 3.22c1.033 6.952 4.667 13.846 10.233 19.411 5.565 5.566 12.459 9.2 19.41 10.233 1.07.16 2.15.255 3.23.287l.012-.02c-1.175 4.814-3.645 9.23-7.239 12.823zm7.74-15.402c-1.102-.011-2.227-.1-3.359-.269-6.402-.95-12.777-4.324-17.95-9.496-5.172-5.173-8.545-11.548-9.496-17.95a24.536 24.536 0 0 1-.269-3.343c.866-.125 1.737-.21 2.611-.253a21.62 21.62 0 0 0 .238 3.213c.87 5.852 3.981 11.708 8.761 16.488a1.305 1.305 0 0 0 1.845-1.845c-4.387-4.387-7.237-9.723-8.025-15.027a19.016 19.016 0 0 1-.212-2.833c6.591.298 13.095 2.958 18.117 7.98 4.877 4.878 7.688 11.271 7.993 18.117a19.09 19.09 0 0 1-2.846-.212 1.305 1.305 0 0 0-.383 2.58c1.077.16 2.14.24 3.175.24h.05a27.701 27.701 0 0 1-.25 2.61z" fill="#F1CDB3"/><path d="M46.152 25.775a1.309 1.309 0 0 0-1.305 1.304 1.309 1.309 0 0 0 1.305 1.305c.343 0 .68-.14.922-.383.244-.245.38-.576.382-.922 0-.343-.14-.68-.382-.922a1.31 1.31 0 0 0-.922-.382z" fill="#F1CDB3"/></svg>
